X: 16721
T: Happydaze
R: jig
M: 6/8
K: Aminor
B/c/d/|:eAG AAA|AGE GGG|AGE GGG|AGE D (3Bcd|
eAG AAA|AGE GGG|A2 (3Bcd ec|cdd cAA:|
ega ade|gae dcd|ega ade|gAB ~A3|
d^cd ~e3|~g3 age|A2 (3Bcd ec|ddc AA2:|

